svg/totem.svg

<svg xmlns="http://www.w3.org/2000/svg" viewBox="0 0 62 64" enable-background="new 0 0 62 64"><style type="text/css">.st0{fill:#333333;}</style><title>totem</title><desc>Created with Sketch.</desc><path class="st0" d="M26 57h10v-10h-10v10zm3-7h4v4h-4v-4zM31 37c2.8 0 5-2.2 5-5s-2.2-5-5-5-5 2.2-5 5 2.2 5 5 5zm0-7c1.1 0 2 .9 2 2s-.9 2-2 2-2-.9-2-2 .9-2 2-2zM60 20h-17.3c.2-.6.3-1.3.3-2v-12c0-3.3-2.7-6-6-6h-12c-3.3 0-6 2.7-6 6v12c0 .7.1 1.4.3 2h-17.3c-1.7 0-2.4 1.2-1.7 2.7l6.7 13.3h12v2c0 1.5.6 2.9 1.5 4-1 1.1-1.5 2.5-1.5 4v12c0 .7.1 1.4.3 2h-4.3c-1.1 0-2 .9-2 2s.9 2 2 2h32c1.1 0 2-.9 2-2s-.9-2-2-2h-4.3c.2-.6.3-1.3.3-2v-12c0-1.5-.6-2.9-1.5-4 1-1.1 1.5-2.5 1.5-4v-2h12l6.7-13.3c.7-1.5 0-2.7-1.7-2.7zm-21 6v12c0 1.1-.9 2-2 2h-12c-1.1 0-2-.9-2-2v-12c0-1.1.9-2 2-2h12c1.1 0 2 .9 2 2zm-16-8v-7h6v-4h-6v-1c0-1.1.9-2 2-2h12c1.1 0 2 .9 2 2v1h-6v4h6v7c0 1.1-.9 2-2 2h-4v-6h-4v6h-4c-1.1 0-2-.9-2-2zm-4 15h-2v-6h-3v6h-2v-7h-3v7l-5-10h15.8c-.5.9-.8 1.9-.8 3v7zm6 27c-1.1 0-2-.9-2-2v-12c0-1.1.9-2 2-2h12c1.1 0 2 .9 2 2v12c0 1.1-.9 2-2 2h-12zm28-27v-7h-3v7h-2v-6h-3v6h-2v-7c0-1.1-.3-2.1-.8-3h15.8l-5 10z"/></svg>

<?xml version="1.0" encoding="utf-8"?>
<!-- Generator: Adobe Illustrator 21.0.0, SVG Export Plug-In . SVG Version: 6.00 Build 0)  -->
<svg version="1.1" id="Layer_1" xmlns="http://www.w3.org/2000/svg" xmlns:xlink="http://www.w3.org/1999/xlink" x="0px" y="0px"
	 viewBox="0 0 62 64" style="enable-background:new 0 0 62 64;" xml:space="preserve">
<style type="text/css">
	.st0{fill:#333333;}
</style>
<title>totem</title>
<desc>Created with Sketch.</desc>
<g>
	<path class="st0" d="M26,57h10V47H26V57z M29,50h4v4h-4V50z"/>
	<path class="st0" d="M31,37c2.8,0,5-2.2,5-5s-2.2-5-5-5s-5,2.2-5,5S28.2,37,31,37z M31,30c1.1,0,2,0.9,2,2c0,1.1-0.9,2-2,2
		s-2-0.9-2-2C29,30.9,29.9,30,31,30z"/>
	<path class="st0" d="M60,20H42.7c0.2-0.6,0.3-1.3,0.3-2V6c0-3.3-2.7-6-6-6H25c-3.3,0-6,2.7-6,6v12c0,0.7,0.1,1.4,0.3,2H2
		c-1.7,0-2.4,1.2-1.7,2.7L7,36h12v2c0,1.5,0.6,2.9,1.5,4c-1,1.1-1.5,2.5-1.5,4v12c0,0.7,0.1,1.4,0.3,2H15c-1.1,0-2,0.9-2,2
		s0.9,2,2,2h10h12h10c1.1,0,2-0.9,2-2s-0.9-2-2-2h-4.3c0.2-0.6,0.3-1.3,0.3-2V46c0-1.5-0.6-2.9-1.5-4c1-1.1,1.5-2.5,1.5-4v-2h12
		l6.7-13.3C62.4,21.2,61.7,20,60,20z M39,26v12c0,1.1-0.9,2-2,2H25c-1.1,0-2-0.9-2-2V26c0-1.1,0.9-2,2-2h12C38.1,24,39,24.9,39,26z
		 M23,18v-7h6V7h-6V6c0-1.1,0.9-2,2-2h12c1.1,0,2,0.9,2,2v1h-6v4h6v7c0,1.1-0.9,2-2,2h-4v-6h-4v6h-4C23.9,20,23,19.1,23,18z M19,33
		h-2v-6h-3v6h-2v-7H9v7L4,23h15.8c-0.5,0.9-0.8,1.9-0.8,3V33z M25,60c-1.1,0-2-0.9-2-2V46c0-1.1,0.9-2,2-2h12c1.1,0,2,0.9,2,2v12
		c0,1.1-0.9,2-2,2H25z M53,33v-7h-3v7h-2v-6h-3v6h-2v-7c0-1.1-0.3-2.1-0.8-3H58L53,33z"/>
</g>
</svg>
